src/assets/images/logo.svg

<svg viewBox="0 0 6.3500002 6.3500002" id="svg1976" version="1.1" xmlns="http://www.w3.org/2000/svg" xmlns:cc="http://creativecommons.org/ns#" xmlns:dc="http://purl.org/dc/elements/1.1/" xmlns:inkscape="http://www.inkscape.org/namespaces/inkscape" xmlns:rdf="http://www.w3.org/1999/02/22-rdf-syntax-ns#" xmlns:sodipodi="http://sodipodi.sourceforge.net/DTD/sodipodi-0.dtd" xmlns:svg="http://www.w3.org/2000/svg" fill="#000000" stroke="#000000"><g id="SVGRepo_bgCarrier" stroke-width="0"></g><g id="SVGRepo_tracerCarrier" stroke-linecap="round" stroke-linejoin="round"></g><g id="SVGRepo_iconCarrier"> <defs id="defs1970"></defs> <g id="layer1" style="display:inline"> <path d="m 3.1752593,2.5833875e-4 c -1.7503697,0 -3.1760345625,1.42359646125 -3.1760345625,3.17396646125 0,1.7503699 1.4256648625,3.1755169 3.1760345625,3.1755169 1.750359,0 3.175516,-1.425147 3.175516,-3.1755169 0,-1.75037 -1.425157,-3.17396646125 -3.175516,-3.17396646125 z M 3.701325,0.58213498 c 0.2633345,0.0527823 0.5119899,0.14385365 0.7405238,0.2682007 0.1649016,0.34180582 0.2936028,0.67597952 0.382405,1.00148922 h 0.6423369 c 0.095978,0.1661072 0.1757468,0.3425762 0.2340954,0.5291667 H 4.9384585 c 0.08894,0.5534662 0.076676,1.0823162 -0.010345,1.5880167 h 0.772046 C 5.6416866,4.1555446 5.5615999,4.3320857 5.4655482,4.498175 H 4.8108076 C 4.7137082,4.8460211 4.5807815,5.1811702 4.4273682,5.5063823 4.2022898,5.6272199 3.9582143,5.7166623 3.699764,5.7683817 3.9334969,5.3539473 4.1310454,4.9331252 4.2713063,4.498175 H 2.0125292 C 2.1507079,4.9266894 2.3455338,5.3412841 2.5747688,5.7497783 2.3090372,5.688318 2.0592996,5.5872527 1.8311441,5.4526388 1.6888248,5.1441962 1.5652829,4.8267955 1.4735439,4.498175 H 0.88494913 C 0.78889483,4.3320857 0.70829213,4.1555446 0.64982193,3.9690083 H 1.3562382 C 1.2692247,3.4633078 1.256448,2.9344578 1.3453903,2.3809916 H 0.64930863 C 0.70765713,2.1944011 0.78794233,2.0179321 0.88391993,1.8518249 H 1.459595 C 1.5435129,1.5442188 1.6635465,1.2287955 1.8151289,0.90666299 2.0467319,0.76795602 2.300806,0.66363665 2.5716732,0.6007385 2.3125773,1.0379884 2.1269801,1.4534936 2.0011707,1.8518249 H 4.2826834 C 4.1550643,1.4477814 3.9663529,1.0263148 3.701325,0.58213498 Z M 1.8642276,2.3809916 c -0.1062593,0.55968 -0.09122,1.0846927 0.00931,1.5880167 h 2.5367959 c 0.10051,-0.503292 0.1160542,-1.0283767 0.00982,-1.5880167 z" id="circle877" style="color:#ff0000;font-style:normal;font-variant:normal;font-weight:normal;font-stretch:normal;font-size:medium;line-height:normal;font-family:sans-serif;font-variant-ligatures:normal;font-variant-position:normal;font-variant-caps:normal;font-variant-numeric:normal;font-variant-alternates:normal;font-variant-east-asian:normal;font-feature-settings:normal;font-variation-settings:normal;text-indent:0;text-align:start;text-decoration:none;text-decoration-line:none;text-decoration-style:solid;text-decoration-color:blue;letter-spacing:normal;word-spacing:normal;text-transform:none;writing-mode:lr-tb;direction:ltr;text-orientation:mixed;dominant-baseline:auto;baseline-shift:baseline;text-anchor:start;white-space:normal;shape-padding:0;shape-margin:0;inline-size:0;clip-rule:nonzero;display:inline;overflow:visible;visibility:visible;isolation:auto;mix-blend-mode:normal;color-interpolation:sRGB;color-interpolation-filters:linearRGB;solid-color:blue;solid-opacity:1;vector-effect:none;fill:#be123c;fill-opacity:1;fill-rule:nonzero;stroke:none;stroke-width:0.529167;stroke-linecap:round;stroke-linejoin:round;stroke-miterlimit:4;stroke-dasharray:none;stroke-dashoffset:0;stroke-opacity:1;paint-order:stroke fill markers;color-rendering:auto;image-rendering:auto;shape-rendering:auto;text-rendering:auto;enable-background:accumulate;stop-color:#ff0000"></path> </g> </g></svg>

<svg xmlns="http://www.w3.org/2000/svg" stroke="#000" viewBox="0 0 6.35 6.35"><path d="M3.175 0A3.179 3.179 0 000 3.174 3.18 3.18 0 003.175 6.35a3.18 3.18 0 003.176-3.176A3.179 3.179 0 003.175 0zm.526.582c.264.053.512.144.74.268.166.342.294.676.383 1.002h.643c.096.166.175.342.234.529h-.763a4.8 4.8 0 01-.01 1.588H5.7a2.627 2.627 0 01-.234.53H4.81c-.097.347-.23.682-.384 1.007-.225.121-.469.21-.727.262.233-.414.431-.835.571-1.27H2.013c.138.429.333.843.562 1.252a2.626 2.626 0 01-.744-.297 6.37 6.37 0 01-.357-.955h-.59A2.629 2.629 0 01.65 3.97h.706a4.8 4.8 0 01-.01-1.588H.648c.059-.187.139-.363.235-.53h.576c.084-.307.204-.622.355-.944.232-.139.486-.243.757-.306a6 6 0 00-.57 1.25h2.28a6.011 6.011 0 00-.58-1.269zM1.864 2.381a4.095 4.095 0 00.01 1.588H4.41c.1-.503.116-1.028.01-1.588z" style="line-height:normal;font-variant-ligatures:normal;font-variant-position:normal;font-variant-caps:normal;font-variant-numeric:normal;font-variant-alternates:normal;font-variant-east-asian:normal;font-feature-settings:normal;font-variation-settings:normal;text-indent:0;text-align:start;text-decoration-line:none;text-decoration-style:solid;text-decoration-color:#00f;text-transform:none;text-orientation:mixed;white-space:normal;shape-padding:0;shape-margin:0;inline-size:0;isolation:auto;mix-blend-mode:normal;solid-color:blue;solid-opacity:1" fill="#be123c" stroke="none" stroke-linecap="round" stroke-linejoin="round" stroke-width=".529" color="red" font-family="sans-serif" font-weight="400" overflow="visible" paint-order="stroke fill markers" stop-color="red"/></svg>
